app/result/img/bens-1.svg

<svg width="32" height="42" viewBox="0 0 32 42" fill="none" xmlns="http://www.w3.org/2000/svg">
<path d="M15.515 0C6.95984 0 0 6.95984 0 15.515C0 18.3314 1.2631 21.3605 1.31604 21.4883C1.72399 22.4566 2.52894 23.9606 3.10939 24.8422L13.7472 40.9605C14.1825 41.6213 14.8269 42 15.515 42C16.2031 42 16.8475 41.6213 17.2828 40.9614L27.9215 24.8422C28.5029 23.9606 29.3069 22.4566 29.7149 21.4883C29.7678 21.3614 31.03 18.3323 31.03 15.515C31.03 6.95984 24.0701 0 15.515 0ZM28.0319 20.7801C27.6678 21.648 26.9185 23.0471 26.3974 23.8374L15.7587 39.9566C15.5488 40.2751 15.4821 40.2751 15.2722 39.9566L4.63351 23.8374C4.11239 23.0471 3.3631 21.6471 2.99896 20.7791C2.98344 20.7417 1.82529 17.9536 1.82529 15.515C1.82529 7.96649 7.96649 1.82529 15.515 1.82529C23.0635 1.82529 29.2047 7.96649 29.2047 15.515C29.2047 17.9572 28.0438 20.7527 28.0319 20.7801Z" fill="#BE1622"/>
<path d="M15.515 7.30209C10.9855 7.30209 7.30117 10.9874 7.30117 15.5159C7.30117 20.0445 10.9855 23.7297 15.515 23.7297C20.0445 23.7297 23.7288 20.0445 23.7288 15.5159C23.7288 10.9874 20.0445 7.30209 15.515 7.30209ZM15.515 21.9044C11.9931 21.9044 9.12647 19.0387 9.12647 15.5159C9.12647 11.9931 11.9931 9.12738 15.515 9.12738C19.0369 9.12738 21.9035 11.9931 21.9035 15.5159C21.9035 19.0387 19.0369 21.9044 15.515 21.9044Z" fill="#BE1622"/>
</svg>

<svg width="32" height="42" viewBox="0 0 32 42" fill="none" xmlns="http://www.w3.org/2000/svg"><path d="M15.515 0C6.96 0 0 6.96 0 15.515c0 2.816 1.263 5.845 1.316 5.973.408.969 1.213 2.473 1.793 3.354l10.638 16.119c.435.66 1.08 1.039 1.768 1.039s1.332-.379 1.768-1.039l10.639-16.119a24.917 24.917 0 0 0 1.793-3.354c.053-.127 1.315-3.156 1.315-5.973C31.03 6.96 24.07 0 15.515 0zm12.517 20.78c-.364.868-1.113 2.267-1.635 3.057L15.76 39.957c-.21.318-.277.318-.487 0L4.634 23.837c-.522-.79-1.27-2.19-1.635-3.058-.016-.037-1.174-2.825-1.174-5.264 0-7.549 6.141-13.69 13.69-13.69 7.549 0 13.69 6.141 13.69 13.69 0 2.442-1.161 5.238-1.173 5.265z" fill="#BE1622"/><path d="M15.515 7.302c-4.53 0-8.214 3.685-8.214 8.214 0 4.528 3.684 8.214 8.214 8.214s8.214-3.686 8.214-8.214c0-4.529-3.684-8.214-8.214-8.214zm0 14.602a6.396 6.396 0 0 1-6.389-6.388 6.396 6.396 0 0 1 6.389-6.389 6.396 6.396 0 0 1 6.389 6.389 6.396 6.396 0 0 1-6.389 6.388z" fill="#BE1622"/></svg>
